X: 2
T: Auld Grey Cat, The (R-82)
I: Auld Grey Cat, The	R-82	E Dor	reel
M: C|
R: reel
K: EDor
"Em"e2e2 E3F| GFGA BABc| "D"d2d2 D3E| FAdB AFED|
"Em"e2e2 E3F| EFGA BABc| "D"dcBA "B"BAGF|1 "Em"E4 e3^d :|2 "Em"E4 e3|]
|:d| "Em"B2e2 e3d| Bdef gfed| "D"A2d2 d3B| ABde fedf|
   "Em"e2B2 g2B2| "C"a2B2 "B"b3a| "Am"gfed "B"BAB^d|1 "Em"e4 e3 :|2 "Em"e4 e4 |]

